build/img/calendar_hover.svg

<svg width="24" height="24" viewBox="0 0 24 24" fill="none" xmlns="http://www.w3.org/2000/svg">
<path d="M1 8L23 8" stroke="#1A1A1A" stroke-width="1.5"/>
<path d="M5 1L5 3" stroke="#1A1A1A" stroke-width="1.5" stroke-linecap="round"/>
<path d="M19 1L19 3" stroke="#1A1A1A" stroke-width="1.5" stroke-linecap="round"/>
<path d="M5 11.25C4.58579 11.25 4.25 11.5858 4.25 12C4.25 12.4142 4.58579 12.75 5 12.75V11.25ZM7 12.75C7.41421 12.75 7.75 12.4142 7.75 12C7.75 11.5858 7.41421 11.25 7 11.25V12.75ZM5 12.75H7V11.25H5V12.75Z" fill="#1A1A1A"/>
<path d="M5 14.25C4.58579 14.25 4.25 14.5858 4.25 15C4.25 15.4142 4.58579 15.75 5 15.75V14.25ZM7 15.75C7.41421 15.75 7.75 15.4142 7.75 15C7.75 14.5858 7.41421 14.25 7 14.25V15.75ZM5 15.75H7V14.25H5V15.75Z" fill="#1A1A1A"/>
<path d="M5 17.25C4.58579 17.25 4.25 17.5858 4.25 18C4.25 18.4142 4.58579 18.75 5 18.75V17.25ZM7 18.75C7.41421 18.75 7.75 18.4142 7.75 18C7.75 17.5858 7.41421 17.25 7 17.25V18.75ZM5 18.75H7V17.25H5V18.75Z" fill="#1A1A1A"/>
<path d="M11 11.25C10.5858 11.25 10.25 11.5858 10.25 12C10.25 12.4142 10.5858 12.75 11 12.75V11.25ZM13 12.75C13.4142 12.75 13.75 12.4142 13.75 12C13.75 11.5858 13.4142 11.25 13 11.25V12.75ZM11 12.75H13V11.25H11V12.75Z" fill="#1A1A1A"/>
<path d="M11 14.25C10.5858 14.25 10.25 14.5858 10.25 15C10.25 15.4142 10.5858 15.75 11 15.75V14.25ZM13 15.75C13.4142 15.75 13.75 15.4142 13.75 15C13.75 14.5858 13.4142 14.25 13 14.25V15.75ZM11 15.75H13V14.25H11V15.75Z" fill="#1A1A1A"/>
<path d="M11 17.25C10.5858 17.25 10.25 17.5858 10.25 18C10.25 18.4142 10.5858 18.75 11 18.75V17.25ZM13 18.75C13.4142 18.75 13.75 18.4142 13.75 18C13.75 17.5858 13.4142 17.25 13 17.25V18.75ZM11 18.75H13V17.25H11V18.75Z" fill="#1A1A1A"/>
<path d="M17 11.25C16.5858 11.25 16.25 11.5858 16.25 12C16.25 12.4142 16.5858 12.75 17 12.75V11.25ZM19 12.75C19.4142 12.75 19.75 12.4142 19.75 12C19.75 11.5858 19.4142 11.25 19 11.25V12.75ZM17 12.75H19V11.25H17V12.75Z" fill="#1A1A1A"/>
<path d="M17 14.25C16.5858 14.25 16.25 14.5858 16.25 15C16.25 15.4142 16.5858 15.75 17 15.75V14.25ZM19 15.75C19.4142 15.75 19.75 15.4142 19.75 15C19.75 14.5858 19.4142 14.25 19 14.25V15.75ZM17 15.75H19V14.25H17V15.75Z" fill="#1A1A1A"/>
<rect x="1" y="2" width="22" height="20" rx="2" stroke="#1A1A1A" stroke-width="1.5" stroke-linejoin="round"/>
</svg>

<svg width="24" height="24" viewBox="0 0 24 24" fill="none" xmlns="http://www.w3.org/2000/svg"><path d="M1 8h22" stroke="#1A1A1A" stroke-width="1.5"/><path d="M5 1v2m14-2v2" stroke="#1A1A1A" stroke-width="1.5" stroke-linecap="round"/><path d="M5 11.25a.75.75 0 000 1.5v-1.5zm2 1.5a.75.75 0 000-1.5v1.5zm-2 0h2v-1.5H5v1.5zm0 1.5a.75.75 0 000 1.5v-1.5zm2 1.5a.75.75 0 000-1.5v1.5zm-2 0h2v-1.5H5v1.5zm0 1.5a.75.75 0 000 1.5v-1.5zm2 1.5a.75.75 0 000-1.5v1.5zm-2 0h2v-1.5H5v1.5zm6-7.5a.75.75 0 000 1.5v-1.5zm2 1.5a.75.75 0 000-1.5v1.5zm-2 0h2v-1.5h-2v1.5zm0 1.5a.75.75 0 000 1.5v-1.5zm2 1.5a.75.75 0 000-1.5v1.5zm-2 0h2v-1.5h-2v1.5zm0 1.5a.75.75 0 000 1.5v-1.5zm2 1.5a.75.75 0 000-1.5v1.5zm-2 0h2v-1.5h-2v1.5zm6-7.5a.75.75 0 000 1.5v-1.5zm2 1.5a.75.75 0 000-1.5v1.5zm-2 0h2v-1.5h-2v1.5zm0 1.5a.75.75 0 000 1.5v-1.5zm2 1.5a.75.75 0 000-1.5v1.5zm-2 0h2v-1.5h-2v1.5z" fill="#1A1A1A"/><rect x="1" y="2" width="22" height="20" rx="2" stroke="#1A1A1A" stroke-width="1.5" stroke-linejoin="round"/></svg>
